src/assets/Svgs/star_white_48dp.svg

<svg xmlns="http://www.w3.org/2000/svg" enable-background="new 0 0 24 24" height="48px" viewBox="0 0 24 24" width="48px" fill="#FFFFFF"><g><path d="M0,0h24v24H0V0z" fill="none"/><path d="M0,0h24v24H0V0z" fill="none"/></g><g><path d="m994.5 424.5 2.028 -0.162 2 0.168 1.973 0.493 126.18 77.668 126.33 77.5L1379.5 657.5a3851.667 3851.667 0 0 1 0.5 152 2013.333 2013.333 0 0 0 -54.5 107h-3q0.088 -113.01 -2 -226a14601.667 14601.667 0 0 0 -323.5 -202A26873.333 26873.333 0 0 0 675 692.5q-0.292 113.5 0.5 227h-3a8128.333 8128.333 0 0 0 -53.5 -108 5773.333 5773.333 0 0 1 0 -152 71323.333 71323.333 0 0 0 375.5 -235m0 84a9.833 9.833 0 0 1 6 1q149.027 93.15 298.5 186 1.003 2 0 4a823.333 823.333 0 0 0 -41.5 26.5 16.167 16.167 0 0 1 -8 0l-251.5 -157.5A31360 31360 0 0 0 748.5 725q-4.5 3 -9 0a723.333 723.333 0 0 0 -38 -25q-2.063 -3.81 2 -6a15981.667 15981.667 0 0 0 291 -185.5m1 109a8.4 8.4 0 0 1 4 0.5 5598.333 5598.333 0 0 0 122 76 70 70 0 0 1 9 7 40.833 40.833 0 0 1 -8 7 17611.667 17611.667 0 0 0 -104.5 68.5c-0.33 150.332 -0.67 300.67 -1 451a141.667 141.667 0 0 1 -19 12 185 185 0 0 1 -20 -13l-1 -449a19298.333 19298.333 0 0 1 -113.5 -73.5q5.3 -5.677 12 -10a4196.667 4196.667 0 0 0 120 -76.5m307 99h3q0.252 165.002 -0.5 330a21061.667 21061.667 0 0 0 -257.5 164.5q-2.773 1.697 -6 1.5 -0.252 -30.508 0.5 -61c70.69 -44.7 141.35 -89.36 212 -134 0.33 -90 0.67 -180 1 -270q3.3 -3.81 7.5 -6.5a1173.333 1173.333 0 0 0 40 -24.5m-612 1a13 13 0 0 1 5 0.5 405 405 0 0 1 46 28.5l2 275q104.157 66.343 208 133.5a806.667 806.667 0 0 1 1 56.5 18.333 18.333 0 0 1 -6 -0.5 12756.667 12756.667 0 0 0 -255 -163.5q-1.5 -164.998 -1 -330m472 4q14.627 5.323 27 15.5 8.97 4.95 18 10 1.843 1.773 0 3.5a10056.667 10056.667 0 0 0 -159 103.5 8.4 8.4 0 0 1 -4 0.5q-0.252 -28.003 0.5 -56a20063.333 20063.333 0 0 0 113.5 -72.5q3.208 -1.313 4 -4.5m-335 3a13 13 0 0 1 5 0.5 10506.667 10506.667 0 0 0 116 74.5 793.333 793.333 0 0 1 2 51q-4.868 -0.57 -9 -3.5L790 751.5q-1.027 -1.927 0.5 -3.5a1503.333 1503.333 0 0 0 37 -23.5m359 69q1.742 69.748 0.5 140a6490 6490 0 0 1 -139.5 131.5q-1.427 0.722 -3 0.5 -0.252 -89 0.5 -178 70.982 -46.75 141.5 -94m-381 3a33861.667 33861.667 0 0 1 145.5 92q0.75 87.5 0.5 175a9.333 9.333 0 0 1 -6 -2.5 4670 4670 0 0 0 -139 -118.5q-1.5 -72.992 -1 -146m-187 49q1.313 -0.198 2 1a8351.667 8351.667 0 0 0 53.5 110 5571.667 5571.667 0 0 1 2.5 100 155063.333 155063.333 0 0 1 321.5 203 843.333 843.333 0 0 0 23.5 -13.5l300.5 -190.5q0.048 -46.573 2 -93a881.667 881.667 0 0 1 21 -52q17.25 -32.513 34.5 -65c1.17 79.667 1.33 159.33 0.5 239q-189.87 118.562 -379.5 237.5 -3 1.003 -6 0a53916.667 53916.667 0 0 0 -375 -236.5q-1.5 -120 -1 -240"/></g></svg>

<svg xmlns="http://www.w3.org/2000/svg" enable-background="new 0 0 24 24" height="48px" viewBox="0 0 24 24" width="48px" fill="#FFFFFF"><g><path d="M0,0h24v24H0V0z" fill="none"/><path d="M0,0h24v24H0V0z" fill="none"/></g><g><path d="M 994.5,424.5 C 996.527,424.338 998.527,424.505 1000.5,425C 1126.68,502.667 1253.01,580.167 1379.5,657.5C 1380.67,708.163 1380.83,758.83 1380,809.5C 1360.76,844.638 1342.6,880.305 1325.5,916.5C 1324.5,916.5 1323.5,916.5 1322.5,916.5C 1322.56,841.16 1321.89,765.827 1320.5,690.5C 1213.61,621.796 1105.77,554.463 997,488.5C 889.176,555.744 781.843,623.744 675,692.5C 674.805,768.166 674.971,843.833 675.5,919.5C 674.5,919.5 673.5,919.5 672.5,919.5C 654.939,883.379 637.106,847.379 619,811.5C 618.333,760.833 618.333,710.167 619,659.5C 744.45,581.53 869.617,503.197 994.5,424.5 Z M 994.5,508.5 C 996.604,508.201 998.604,508.534 1000.5,509.5C 1099.85,571.6 1199.35,633.6 1299,695.5C 1299.67,696.833 1299.67,698.167 1299,699.5C 1284.92,707.908 1271.09,716.741 1257.5,726C 1254.83,726.667 1252.17,726.667 1249.5,726C 1165.67,673.5 1081.83,621 998,568.5C 914.547,620.302 831.38,672.469 748.5,725C 745.5,727 742.5,727 739.5,725C 727.104,716.274 714.437,707.94 701.5,700C 700.124,697.46 700.79,695.46 703.5,694C 801.34,633.104 898.34,571.271 994.5,508.5 Z M 995.5,617.5 C 996.873,617.343 998.207,617.51 999.5,618C 1039.77,643.809 1080.43,669.142 1121.5,694C 1124.71,696.101 1127.71,698.434 1130.5,701C 1128.19,703.635 1125.53,705.968 1122.5,708C 1087.59,730.706 1052.76,753.539 1018,776.5C 1017.67,926.833 1017.33,1077.17 1017,1227.5C 1010.95,1232.02 1004.62,1236.02 998,1239.5C 991.12,1235.64 984.454,1231.31 978,1226.5C 977.667,1076.83 977.333,927.167 977,777.5C 939.052,753.114 901.219,728.614 863.5,704C 867.033,700.216 871.033,696.882 875.5,694C 916.007,669.131 956.007,643.631 995.5,617.5 Z M 1302.5,716.5 C 1303.5,716.5 1304.5,716.5 1305.5,716.5C 1305.67,826.501 1305.5,936.501 1305,1046.5C 1218.81,1100.68 1132.98,1155.52 1047.5,1211C 1045.65,1212.13 1043.65,1212.63 1041.5,1212.5C 1041.33,1192.16 1041.5,1171.83 1042,1151.5C 1112.69,1106.8 1183.35,1062.14 1254,1017.5C 1254.33,927.5 1254.67,837.5 1255,747.5C 1257.2,744.96 1259.7,742.793 1262.5,741C 1276.06,733.059 1289.4,724.892 1302.5,716.5 Z M 690.5,717.5 C 692.199,717.34 693.866,717.506 695.5,718C 711.476,726.478 726.809,735.978 741.5,746.5C 742.167,838.167 742.833,929.833 743.5,1021.5C 812.937,1065.73 882.27,1110.23 951.5,1155C 952.493,1173.76 952.826,1192.59 952.5,1211.5C 950.473,1211.66 948.473,1211.5 946.5,1211C 862.146,1155.49 777.146,1100.99 691.5,1047.5C 690.5,937.502 690.167,827.502 690.5,717.5 Z M 1162.5,721.5 C 1172.25,725.049 1181.25,730.216 1189.5,737C 1195.48,740.3 1201.48,743.634 1207.5,747C 1208.73,748.183 1208.73,749.349 1207.5,750.5C 1154.19,784.49 1101.19,818.99 1048.5,854C 1047.21,854.49 1045.87,854.657 1044.5,854.5C 1044.33,835.83 1044.5,817.164 1045,798.5C 1082.92,774.458 1120.75,750.291 1158.5,726C 1160.64,725.124 1161.97,723.624 1162.5,721.5 Z M 827.5,724.5 C 829.199,724.34 830.866,724.506 832.5,725C 870.997,750.083 909.664,774.916 948.5,799.5C 949.714,816.479 950.38,833.479 950.5,850.5C 947.255,850.12 944.255,848.953 941.5,847C 891,815.167 840.5,783.333 790,751.5C 789.316,750.216 789.483,749.049 790.5,748C 803.001,740.312 815.335,732.479 827.5,724.5 Z M 1186.5,793.5 C 1187.66,839.998 1187.83,886.665 1187,933.5C 1141.16,978.01 1094.66,1021.84 1047.5,1065C 1046.55,1065.48 1045.55,1065.65 1044.5,1065.5C 1044.33,1006.17 1044.5,946.832 1045,887.5C 1092.32,856.334 1139.49,825.001 1186.5,793.5 Z M 805.5,796.5 C 854.061,827.033 902.561,857.699 951,888.5C 951.5,946.832 951.667,1005.17 951.5,1063.5C 949.217,1063.39 947.217,1062.56 945.5,1061C 899.902,1020.56 853.568,981.063 806.5,942.5C 805.5,893.838 805.167,845.171 805.5,796.5 Z M 618.5,845.5 C 619.376,845.369 620.043,845.702 620.5,846.5C 638.061,883.289 655.894,919.956 674,956.5C 675.132,989.799 675.965,1023.13 676.5,1056.5C 783.768,1124.05 890.934,1191.71 998,1259.5C 1005.9,1255.13 1013.73,1250.63 1021.5,1246C 1121.67,1182.5 1221.83,1119 1322,1055.5C 1322.03,1024.45 1322.7,993.452 1324,962.5C 1330.45,944.94 1337.45,927.607 1345,910.5C 1356.5,888.824 1368,867.158 1379.5,845.5C 1380.67,925.165 1380.83,1004.83 1380,1084.5C 1253.42,1163.54 1126.92,1242.71 1000.5,1322C 998.5,1322.67 996.5,1322.67 994.5,1322C 869.87,1242.68 744.87,1163.85 619.5,1085.5C 618.5,1005.5 618.167,925.503 618.5,845.5 Z"/></g></svg>
